src/img/Wait.svg

<svg width="49" height="49" viewBox="0 0 49 49" fill="none" xmlns="http://www.w3.org/2000/svg">
<path fill-rule="evenodd" clip-rule="evenodd" d="M48.955 24.4775C48.955 37.996 37.996 48.955 24.4775 48.955C10.9589 48.955 0 37.996 0 24.4775C0 10.9589 10.9589 0 24.4775 0C37.996 0 48.955 10.9589 48.955 24.4775ZM37.3554 17.6028H37.8885H37.9072H38.567C39.3486 17.3495 39.913 16.6208 39.913 15.7584C39.913 14.6863 39.0391 13.8177 37.9604 13.8177C36.8817 13.8177 36.0078 14.6863 36.0078 15.7584C36.0094 16.6192 36.5737 17.3495 37.3554 17.6028ZM41.7871 23.1228L41.7872 23.1231L41.7879 23.1249C42.061 23.8305 42.3086 24.4705 42.4675 24.8887C42.6003 25.2399 42.4362 25.6346 42.0891 25.7868C42.086 25.7899 42.0813 25.7915 42.0766 25.7931C41.9828 25.835 41.8828 25.8552 41.7858 25.8552C41.5076 25.8552 41.2434 25.6921 41.1277 25.4217C40.9856 25.088 40.8431 24.7544 40.7006 24.4207C40.5578 24.0862 40.415 23.7518 40.2726 23.4173V33.402C40.2726 33.9567 39.8208 34.4073 39.2611 34.4073C38.703 34.4073 38.2496 33.9583 38.2496 33.402V27.2226H37.9088H37.8901H37.5492V33.402C37.5492 33.9567 37.0975 34.4073 36.5378 34.4073C36.4455 34.4073 36.358 34.3949 36.2736 34.3716C36.2783 34.3172 36.2814 34.2613 36.2814 34.2053V26.3447C36.5393 26.5218 36.8504 26.6212 37.1772 26.6212C37.3992 26.6212 37.6165 26.5746 37.8197 26.4845L37.8291 26.4798C38.592 26.1396 38.9562 25.271 38.6623 24.4972C38.5322 24.1569 38.3537 23.6951 38.1459 23.1577L38.1456 23.157L38.1449 23.1551L38.142 23.1476L38.1404 23.1435L37.9291 22.5969C37.3273 21.0431 36.5862 19.1288 36.322 18.3783H37.2507H37.8901H37.9088H38.6733H39.5347C39.6222 18.4125 39.752 18.4731 39.8833 18.5819C40.1736 18.822 40.2777 19.1342 40.3134 19.2413L40.3163 19.25C40.523 19.8558 41.2114 21.6348 41.7871 23.1228L41.7871 23.1228ZM32.6404 16.7854H32.8593H32.8796H33.2376C34.2897 16.6409 35.1011 15.7443 35.1011 14.6582C35.1011 13.4711 34.1334 12.5093 32.939 12.5093C31.7447 12.5093 30.777 13.4711 30.777 14.6582C30.7754 15.7443 31.5868 16.6393 32.6404 16.7854ZM37.4992 25.7771C37.3944 25.8237 37.285 25.8455 37.1771 25.8455C36.8691 25.8455 36.5752 25.6652 36.4486 25.3653C36.2903 24.9945 36.1319 24.6232 35.9736 24.2519C35.8161 23.8828 35.6587 23.5137 35.5012 23.145V23.4759V34.2034C35.5012 34.2453 35.4981 34.2873 35.4934 34.3277C35.4762 34.4768 35.4309 34.6167 35.3605 34.7425C35.1698 35.0859 34.8009 35.319 34.3788 35.319C33.7597 35.319 33.2579 34.8202 33.2579 34.2049V27.3589H32.8796H32.8592H32.4809V34.2049C32.4809 34.8202 31.9791 35.319 31.36 35.319C31.2975 35.319 31.2381 35.3128 31.1787 35.3035V26.8958C31.482 27.1677 31.8806 27.3262 32.3074 27.3262C32.545 27.3262 32.7764 27.2765 32.9937 27.1802L33.0109 27.1724C33.3001 27.0434 33.5346 26.8415 33.7034 26.5991C33.7832 26.4872 33.8473 26.3644 33.8957 26.237C33.9426 26.1143 33.9754 25.9853 33.9926 25.8532C34.0255 25.5906 33.9973 25.3172 33.8973 25.0546C33.8097 24.8246 33.7034 24.5465 33.5815 24.2311C33.5488 24.1461 33.515 24.0588 33.4803 23.969L33.4801 23.9687C33.445 23.878 33.4089 23.7848 33.372 23.6888C33.3048 23.5163 33.2344 23.3361 33.1625 23.1481C33.1297 23.0626 33.0969 22.9771 33.0625 22.8901C32.3433 21.0333 31.4507 18.7228 31.1896 17.963L31.1849 17.9506C31.1599 17.8776 31.1115 17.7393 31.0302 17.5746C31.0346 17.5731 31.0393 17.5713 31.044 17.5695L31.0583 17.5637H32.5857H32.8577H32.878H33.2892H34.6789C34.7759 17.6025 34.9197 17.6694 35.0651 17.789C35.1745 17.8776 35.2558 17.9755 35.323 18.0718C35.4184 18.2101 35.4778 18.3406 35.5122 18.4323C35.5229 18.4599 35.5314 18.4847 35.5382 18.5045L35.5383 18.5047L35.5383 18.5049L35.5384 18.5051L35.5466 18.5286C35.5763 18.6172 35.6169 18.7306 35.6654 18.8627C35.9832 19.7357 36.6475 21.4521 37.2068 22.8973L37.207 22.8979C37.4977 23.6491 37.7601 24.3269 37.9306 24.7749C38.0791 25.1633 37.8962 25.6015 37.5132 25.7709C37.5109 25.7717 37.5085 25.7728 37.5062 25.774C37.5038 25.7752 37.5015 25.7763 37.4992 25.7771ZM29.7565 14.7443C30.2772 13.4948 29.6802 12.0623 28.4231 11.5447C27.1659 11.0271 25.7246 11.6205 25.2039 12.87C24.6831 14.1195 25.2801 15.552 26.5373 16.0696C27.7944 16.5872 29.2357 15.9938 29.7565 14.7443ZM32.6748 26.4718C32.556 26.5247 32.431 26.5495 32.3075 26.5495C31.9573 26.5495 31.6227 26.346 31.468 26.0026C31.2881 25.5805 31.1082 25.1588 30.9283 24.737L30.9222 24.7228C30.7446 24.3063 30.5669 23.8898 30.3893 23.473V34.7754V35.3643V35.8351V36.0743C30.3893 36.7751 29.8171 37.3438 29.112 37.3438C28.407 37.3438 27.8348 36.7751 27.8348 36.0743V28.2758H27.4049H27.3815H26.9515V36.0743C26.9515 36.7751 26.3794 37.3438 25.6743 37.3438C25.6227 37.3438 25.5727 37.3407 25.5227 37.3345V27.3668C25.8557 27.746 26.3419 27.9728 26.8671 27.9728C27.1188 27.9728 27.3643 27.92 27.5956 27.8174L27.605 27.8128L27.6144 27.8081C28.1318 27.5782 28.4852 27.1307 28.6149 26.6195C28.6477 26.4905 28.6665 26.3584 28.6696 26.2248C28.6728 26.0974 28.6602 25.9684 28.6337 25.8394C28.6149 25.7462 28.5899 25.653 28.5555 25.5613C28.4179 25.1993 28.2366 24.7285 28.0271 24.1847L27.957 24.0033L27.8176 23.6424C27.7567 23.4823 27.6941 23.3192 27.6285 23.1514C27.6206 23.1343 27.6144 23.1172 27.6081 23.1001L27.5877 23.0473L27.5875 23.0468C26.7955 20.9993 25.8282 18.4983 25.543 17.6649L25.5383 17.6509C25.5055 17.553 25.4383 17.3557 25.3085 17.1242C25.3124 17.1226 25.3167 17.1207 25.321 17.1187C25.3253 17.1168 25.3296 17.1149 25.3335 17.1133H27.3846H27.408H29.4591C29.5701 17.1568 29.7342 17.2329 29.9 17.3697C29.9093 17.3771 29.9176 17.3851 29.9257 17.393L29.9355 17.4024L29.9422 17.4085C30.0485 17.5033 30.1345 17.6043 30.2017 17.7037C30.3002 17.8467 30.3627 17.9819 30.4018 18.0829C30.4236 18.137 30.4391 18.1834 30.4485 18.2114L30.4486 18.2116L30.4487 18.2118L30.4487 18.2118C30.722 19.0108 31.6565 21.4249 32.4009 23.348L32.7421 24.2297L32.8333 24.4664C32.8749 24.5742 32.9148 24.6778 32.9531 24.7766C33.015 24.9358 33.0712 25.0837 33.1217 25.2167L33.1642 25.3282C33.2345 25.5132 33.2376 25.7058 33.1876 25.883C33.1516 26.015 33.086 26.1378 32.9938 26.2403C32.9109 26.332 32.8108 26.4112 32.6905 26.4641C32.6858 26.4672 32.6795 26.4687 32.6748 26.4718ZM21.5017 15.7382C23.0166 15.7382 24.2438 14.5185 24.2438 13.0129C24.2438 11.5072 23.0166 10.2875 21.5017 10.2875C20.262 10.2875 19.2146 11.1064 18.8769 12.2282C18.8644 12.4939 18.8253 12.7518 18.7612 13.0004V13.0113C18.7597 14.5185 19.9869 15.7382 21.5017 15.7382ZM27.2845 27.1092C27.1516 27.1682 27.0125 27.1962 26.8749 27.1962C26.4841 27.1962 26.112 26.9678 25.9526 26.5871L24.7519 23.7716V36.9417V37.4497V37.7978C24.7519 37.8179 24.7508 37.8379 24.7495 37.858L24.7492 37.8631C24.7485 37.8739 24.7478 37.8848 24.7473 37.8957C24.6972 38.6291 24.0828 39.2102 23.3309 39.2102C22.5461 39.2102 21.9098 38.5778 21.9098 37.7978V29.1167H21.4315H21.4065H20.9281V37.7978C20.9281 38.5778 20.2918 39.2102 19.507 39.2102C19.5044 39.2102 19.5018 39.2102 19.4992 39.2101C19.497 39.21 19.4948 39.2099 19.4926 39.2097L19.4769 39.2086C19.4714 39.2081 19.4659 39.2077 19.4605 39.2074C19.4567 39.2072 19.4529 39.2071 19.4492 39.2071V27.7773C19.7962 28.3025 20.3872 28.6257 21.0344 28.6257C21.3033 28.6257 21.5643 28.5698 21.8098 28.461L21.8301 28.4517C22.346 28.2217 22.7118 27.7882 22.8682 27.2863C22.9119 27.148 22.9369 27.0035 22.9479 26.8575C22.9573 26.7192 22.9526 26.5793 22.9307 26.4395C22.9104 26.3105 22.8775 26.1847 22.8306 26.0588C22.6462 25.5756 22.3913 24.9152 22.0943 24.1476C22.0271 23.9736 21.9567 23.7918 21.8848 23.6069L21.8551 23.5312C21.8353 23.4807 21.8155 23.4303 21.7957 23.3785C21.7717 23.3154 21.747 23.2517 21.7221 23.1873L21.6753 23.0662C20.8077 20.8241 19.7822 18.1686 19.4726 17.2659L19.4664 17.2488C19.432 17.1462 19.3601 16.9396 19.2272 16.6956H21.4049H21.4299H23.7123C23.8327 16.7438 24.0109 16.8277 24.1923 16.9737C24.1938 16.9753 24.1954 16.9765 24.197 16.9776L24.197 16.9776L24.1979 16.9783L24.1995 16.9796L24.2017 16.9815C24.3064 17.067 24.3924 17.1586 24.4659 17.2519C24.5612 17.3715 24.6284 17.4896 24.6816 17.5968C24.7486 17.7361 24.7889 17.8533 24.8098 17.9138L24.8114 17.9185C25.1025 18.7689 26.067 21.2624 26.8747 23.3507L27.1985 24.188L27.2932 24.4335C27.3337 24.5382 27.3731 24.6404 27.4111 24.7396L27.4866 24.9353L27.487 24.9363L27.4883 24.9396C27.6209 25.2834 27.7387 25.5888 27.8332 25.8382C27.8551 25.8988 27.8723 25.9609 27.8833 26.0231C27.9083 26.1707 27.8989 26.3183 27.8598 26.4566C27.7817 26.7347 27.5862 26.9756 27.3033 27.1014C27.3015 27.1023 27.2997 27.1031 27.2979 27.1038C27.2965 27.1043 27.2952 27.1048 27.2939 27.1053C27.2908 27.1065 27.2876 27.1076 27.2845 27.1092ZM15.0452 15.0872C16.4428 15.0872 17.6184 14.1519 17.9811 12.8777C18.0499 12.6338 18.0905 12.379 18.0952 12.1148C18.0952 12.1037 18.096 12.0931 18.0968 12.0826V12.0826C18.0976 12.0725 18.0984 12.0626 18.0984 12.0527C18.0999 10.3761 16.732 9.01809 15.0452 9.01809C13.3584 9.01809 11.9921 10.3761 11.9921 12.0527C11.9921 13.7292 13.36 15.0872 15.0452 15.0872ZM21.4861 27.7494C21.3376 27.8162 21.1828 27.8472 21.0296 27.8472C20.595 27.8472 20.1808 27.594 20.0041 27.1698C19.7813 26.6469 19.5582 26.1245 19.335 25.602C19.1118 25.0795 18.8887 24.5571 18.6659 24.0342V38.9321V39.3889V39.6499C18.6659 39.7059 18.6628 39.7602 18.6565 39.8146C18.5737 40.6071 17.9014 41.2239 17.0823 41.2239C16.2068 41.2239 15.4986 40.5185 15.4986 39.6499V29.9837H14.9655H14.9374H14.4043V39.6499C14.4043 40.5201 13.6946 41.2239 12.8207 41.2239C11.9452 41.2239 11.237 40.5185 11.237 39.6499V24.0327C11.0143 24.5554 10.7912 25.0778 10.5681 25.6002C10.3448 26.1227 10.1216 26.6453 9.89883 27.1682C9.71749 27.5924 9.30321 27.8457 8.8686 27.8457C8.7154 27.8457 8.56063 27.8131 8.41212 27.7478C8.41034 27.7469 8.40843 27.746 8.40647 27.7452C8.40154 27.7429 8.39627 27.7407 8.39179 27.7385C7.85089 27.4976 7.59294 26.8808 7.80242 26.3307C8.04628 25.6898 8.42318 24.7157 8.84002 23.6384C9.74597 21.2971 10.8406 18.468 11.1682 17.5114C11.1699 17.5066 11.1716 17.5014 11.1734 17.496C11.2302 17.3273 11.394 16.8404 11.8467 16.4672C12.0515 16.2978 12.2547 16.2031 12.3923 16.1502H14.9343H14.9624H17.5044C17.6388 16.2031 17.8358 16.2963 18.0375 16.4594C18.0421 16.4625 18.0453 16.4656 18.05 16.4688C18.1547 16.5542 18.2407 16.6459 18.3157 16.7376C18.4064 16.8494 18.4783 16.9598 18.5362 17.0639C18.6396 17.2519 18.6956 17.4163 18.7238 17.4994C18.7255 17.5042 18.727 17.5087 18.7284 17.5129C19.0534 18.4575 20.124 21.2261 21.0224 23.5491C21.1008 23.752 21.178 23.9515 21.2532 24.1461C21.2812 24.2188 21.309 24.2905 21.3365 24.3614C21.3795 24.4723 21.4217 24.5812 21.4627 24.6884C21.5252 24.8517 21.5865 25.0104 21.6456 25.1634L21.6722 25.2322C21.7343 25.3944 21.794 25.5493 21.8503 25.6956C21.9414 25.9321 22.0238 26.1461 22.0943 26.3323C22.1115 26.3789 22.1255 26.4255 22.1365 26.4737C22.1693 26.6135 22.174 26.7549 22.1537 26.8901C22.1349 27.0191 22.0927 27.1434 22.0302 27.2584C21.9176 27.465 21.7378 27.6375 21.5065 27.74C21.5002 27.7431 21.4924 27.7463 21.4861 27.7494Z" fill="black"/>
</svg>

<svg id="Layer_1" data-name="Layer 1" xmlns="http://www.w3.org/2000/svg" viewBox="0 0 48.96 48.96"><defs><style>.cls-1{fill-rule:evenodd;}</style></defs><path class="cls-1" d="M49,24.48A24.48,24.48,0,1,1,24.48,0,24.48,24.48,0,0,1,49,24.48ZM37.36,17.6h1.21a2,2,0,1,0-1.21,0Zm4.43,5.52h0l.68,1.77a.71.71,0,0,1-.38.9h0a.82.82,0,0,1-.29.07.72.72,0,0,1-.66-.44l-.43-1c-.14-.33-.28-.67-.43-1v10a1,1,0,0,1-2,0V27.22h-.7V33.4a1,1,0,0,1-1,1,1.26,1.26,0,0,1-.27,0,.86.86,0,0,0,0-.16V26.34a1.56,1.56,0,0,0,1.54.14h0a1.56,1.56,0,0,0,.83-2c-.13-.34-.31-.8-.51-1.34h0l-.21-.54c-.6-1.56-1.34-3.47-1.61-4.22h3.21a1.08,1.08,0,0,1,.35.2,1.36,1.36,0,0,1,.43.66h0c.2.61.89,2.38,1.47,3.87Zm-9.15-6.33h.6a2.16,2.16,0,1,0-.6,0Zm4.86,9a1,1,0,0,1-.32.07.79.79,0,0,1-.73-.48L36,24.25c-.15-.37-.31-.74-.47-1.1V34.2a.53.53,0,0,1,0,.13.94.94,0,0,1-.13.41,1.12,1.12,0,0,1-2.1-.54V27.36h-.78V34.2a1.12,1.12,0,0,1-1.12,1.12l-.18,0V26.9a1.69,1.69,0,0,0,1.13.43,1.6,1.6,0,0,0,.68-.15h0a1.69,1.69,0,0,0,.69-.57,1.82,1.82,0,0,0,.2-.36,1.7,1.7,0,0,0,.09-.39,1.59,1.59,0,0,0-.09-.8c-.09-.23-.2-.5-.32-.82,0-.08-.07-.17-.1-.26h0c0-.09-.07-.19-.11-.28s-.14-.35-.21-.54a2.77,2.77,0,0,0-.1-.26C32.34,21,31.45,18.72,31.19,18h0a2.79,2.79,0,0,0-.15-.38h3.65a1.55,1.55,0,0,1,.39.23,1.58,1.58,0,0,1,.25.28,1.41,1.41,0,0,1,.19.36l0,.07h0v0l.12.33c.31.88,1,2.59,1.54,4h0l.72,1.87a.78.78,0,0,1-.42,1h0Zm-7.74-11a2.45,2.45,0,0,0-1.34-3.2,2.48,2.48,0,0,0-3.22,1.33,2.45,2.45,0,0,0,1.34,3.2A2.47,2.47,0,0,0,29.76,14.74Zm2.91,11.73a.9.9,0,0,1-.36.08.91.91,0,0,1-.84-.55l-.54-1.26v0c-.18-.41-.35-.83-.53-1.25v12.6a1.28,1.28,0,0,1-2.56,0V28.28H27v7.79a1.27,1.27,0,0,1-1.28,1.27h-.15v-10a1.79,1.79,0,0,0,1.35.6,1.87,1.87,0,0,0,.73-.15h0a1.75,1.75,0,0,0,1-1.19,1.34,1.34,0,0,0,.06-.4,1.69,1.69,0,0,0,0-.38,2.86,2.86,0,0,0-.07-.28L28,24.18,28,24l-.14-.36c-.06-.16-.13-.32-.19-.49,0,0,0,0,0,0l0-.05h0c-.79-2.05-1.76-4.55-2.05-5.39h0a3,3,0,0,0-.23-.53h4.15a1.83,1.83,0,0,1,.44.26l0,0h0a1.39,1.39,0,0,1,.26.29,2,2,0,0,1,.2.38l.05.13h0c.27.8,1.21,3.21,1.95,5.14l.34.88.09.24.12.31c.06.16.12.3.17.44l0,.11a.87.87,0,0,1,0,.55.86.86,0,0,1-.2.36.84.84,0,0,1-.3.22ZM21.5,15.74a2.73,2.73,0,1,0-2.62-3.51,4,4,0,0,1-.12.77h0A2.74,2.74,0,0,0,21.5,15.74Zm5.78,11.37a1,1,0,0,1-.41.09,1,1,0,0,1-.92-.61l-1.2-2.82V37.86h0v0a1.42,1.42,0,0,1-2.84-.1V29.12h-1V37.8a1.42,1.42,0,0,1-1.42,1.41h-.06V27.78a1.89,1.89,0,0,0,2.36.68h0a1.89,1.89,0,0,0,1-1.16,2.17,2.17,0,0,0,.08-.43,2,2,0,0,0,0-.42,1.64,1.64,0,0,0-.1-.38c-.18-.48-.44-1.14-.74-1.91q-.09-.27-.21-.54l0-.08-.06-.15c0-.06-.05-.13-.08-.19l0-.12c-.87-2.25-1.9-4.9-2.21-5.8v0a4.34,4.34,0,0,0-.24-.55h4.48a1.73,1.73,0,0,1,.48.27h0a2.29,2.29,0,0,1,.27.27,1.9,1.9,0,0,1,.21.35,2.38,2.38,0,0,1,.13.31h0c.29.85,1.26,3.34,2.06,5.43l.33.84.09.24.12.31.08.2h0c.13.34.25.65.34.9a.61.61,0,0,1,.05.18.93.93,0,0,1,0,.44,1,1,0,0,1-.56.64h0Zm-12.23-12A3.05,3.05,0,0,0,18,12.88a3.26,3.26,0,0,0,.12-.77v0h0v0a3.06,3.06,0,1,0-3.05,3Zm6.44,12.66a1.09,1.09,0,0,1-.46.1,1.12,1.12,0,0,1-1-.68c-.22-.52-.44-1.05-.67-1.57L18.67,24V39.65c0,.06,0,.11,0,.16a1.58,1.58,0,0,1-3.16-.16V30H14.4v9.67a1.58,1.58,0,0,1-3.16,0V24l-.67,1.57c-.23.52-.45,1-.67,1.57a1.13,1.13,0,0,1-1,.68,1.27,1.27,0,0,1-.46-.1h0a1.11,1.11,0,0,1-.59-1.41l1-2.69c.91-2.34,2-5.17,2.33-6.13h0a2.19,2.19,0,0,1,.68-1,1.79,1.79,0,0,1,.54-.32H17.5a2,2,0,0,1,.54.31h0a2.29,2.29,0,0,1,.27.27,2.64,2.64,0,0,1,.22.32,2.23,2.23,0,0,1,.18.44h0c.32.95,1.39,3.72,2.29,6,.08.2.16.4.23.6l.09.21.12.33c.07.16.13.32.19.47l0,.07.18.47.24.63a1.21,1.21,0,0,1,.05.14,1.19,1.19,0,0,1,0,.42,1.23,1.23,0,0,1-.12.37,1.06,1.06,0,0,1-.52.48Z"/></svg>
